assets/svg/sort.svg

<svg width="50px" height="50px" viewBox="0 0 50 50" version="1.1" xmlns="http://www.w3.org/2000/svg" xmlns:xlink="http://www.w3.org/1999/xlink">
    <defs>
        <path d="M20.9141257,26.2944956 C20.0982002,25.6949821 18.9503166,25.8706689 18.3508031,26.6865945 L12.6648962,34.4262849 L12.6648962,10.8340566 C12.6648962,9.82113456 11.8442351,9 10.8313131,9 C9.81839105,9 8.99773003,9.82113456 8.99773003,10.8340566 L8.99773003,34.4262849 L3.31182306,26.6865945 C2.71183604,25.8706689 1.56442598,25.6949821 0.74850046,26.2944956 C-0.0678986098,26.8944826 -0.243585417,28.0418927 0.355928053,28.8582917 L9.35336559,41.1052249 C9.36804562,41.125114 9.38793469,41.1388469 9.40308827,41.1582624 C9.4589671,41.2283477 9.52194916,41.2936975 9.58919317,41.3566796 C9.62613001,41.3907751 9.66164622,41.4262913 9.70047726,41.457072 C9.71657794,41.4698579 9.72889022,41.485485 9.745938,41.4973237 C9.83070333,41.5598323 9.91925706,41.6133433 10.0106521,41.6583305 C10.0210702,41.6640131 10.0324354,41.6668544 10.0428534,41.6720635 C10.149402,41.7227332 10.2592655,41.7606172 10.3705496,41.7895037 C10.3994361,41.7966069 10.4283226,41.8041837 10.4576827,41.8103399 C10.5808055,41.835438 10.705349,41.8529593 10.8298924,41.8529593 L10.8313131,41.8529593 L10.8327337,41.8529593 C10.9572772,41.8529593 11.0818207,41.835438 11.2049435,41.8103399 C11.2343036,41.8041837 11.2631901,41.7966069 11.2920766,41.7895037 C11.4038343,41.7606172 11.5132242,41.7227332 11.6197728,41.6720635 C11.6306644,41.6668544 11.641556,41.6640131 11.6519741,41.6583305 C11.7433691,41.6133433 11.8319229,41.5598323 11.9166882,41.4973237 C11.933736,41.485485 11.9460483,41.4698579 11.9621489,41.457072 C12.00098,41.4262913 12.0364962,41.3907751 12.073433,41.3566796 C12.140677,41.2936975 12.2036591,41.2283477 12.2595379,41.1582624 C12.2746915,41.1388469 12.2945806,41.125114 12.3092606,41.1052249 L21.3062246,28.8582917 C21.9057381,28.0418927 21.7305248,26.8944826 20.9141257,26.2944956 Z M47.9192242,34.6341731 L25.1912234,34.6341731 C24.0419191,34.6341731 23.1104476,35.5661182 23.1104476,36.7154225 C23.1104476,37.8647267 24.0419191,38.7961983 25.1912234,38.7961983 L47.9192242,38.7961983 C49.0685284,38.7961983 50,37.8647267 50,36.7154225 C50,35.5661182 49.0685284,34.6341731 47.9192242,34.6341731 Z M47.9192242,23.6606141 L30.0076938,23.6606141 C28.8583895,23.6606141 27.926918,24.5920857 27.926918,25.74139 C27.926918,26.8906942 28.8583895,27.8226393 30.0076938,27.8226393 L47.9192242,27.8226393 C49.0685284,27.8226393 50,26.8906942 50,25.74139 C50,24.5920857 49.0685284,23.6606141 47.9192242,23.6606141 Z M23.234044,16.8481333 C22.0852133,16.8481333 21.1532682,15.9161882 21.1532682,14.7668839 C21.1532682,13.6175797 22.0852133,12.6861081 23.234044,12.6861081 L47.9192242,12.6861081 C49.0685284,12.6861081 50,13.6175797 50,14.7668839 C50,15.9161882 49.0685284,16.8481333 47.9192242,16.8481333 L23.234044,16.8481333 Z" id="path-1"></path>
    </defs>
</svg>

<svg width="50" height="50" xmlns="http://www.w3.org/2000/svg"><defs><path d="M20.914 26.294a1.834 1.834 0 00-2.563.393l-5.686 7.74V10.833a1.834 1.834 0 10-3.667 0v23.592l-5.686-7.74a1.834 1.834 0 00-2.956 2.172l8.997 12.247c.015.02.035.034.05.053.056.07.119.136.186.199.037.034.073.07.111.1.017.013.029.028.046.04.085.063.173.116.265.161.01.006.021.009.032.014.106.05.216.089.328.118l.087.02c.123.025.247.043.372.043h.003c.124 0 .249-.018.372-.043l.087-.02c.112-.03.221-.067.328-.118.01-.005.022-.008.032-.014.091-.045.18-.098.265-.16.017-.013.029-.028.045-.04.039-.032.074-.067.111-.101.068-.063.13-.129.187-.199.015-.02.035-.033.05-.053l8.996-12.247c.6-.816.425-1.964-.392-2.564zm27.005 8.34H25.191a2.081 2.081 0 000 4.162H47.92a2.08 2.08 0 100-4.162zm0-10.973H30.008a2.08 2.08 0 100 4.162h17.911a2.081 2.081 0 000-4.162zm-24.685-6.813a2.081 2.081 0 010-4.162h24.685a2.08 2.08 0 110 4.162H23.234z" id="path-1"/></defs></svg>
